src/topics/icons/wifi.svg

<svg height="192" preserveAspectRatio="xMidYMid" viewBox="0 0 256 192" width="256" xmlns="http://www.w3.org/2000/svg"><path d="m198.751242 31.3023697c-17.488149-19.230441-42.709803-31.3023697-70.751242-31.3023697-28.0414392 0-53.2630931 12.0719287-70.7512417 31.3023697zm-141.5024837 128.6066353c17.4881486 19.230453 42.7098025 31.302369 70.7512417 31.302369 28.041439 0 53.263093-12.071916 70.751242-31.302369zm-14.7843033-120.4777254c-23.4527303 0-42.464455 19.0116762-42.464455 42.464455v27.4199054c0 23.452779 19.0117247 42.464455 42.464455 42.464455h171.07109c23.45273 0 42.464455-19.011676 42.464455-42.464455v-27.4199054c0-23.4527788-19.011725-42.464455-42.464455-42.464455zm209.167772 41.9791469c0-20.7724466-16.838927-37.6113744-37.611374-37.6113744h-42.464455c-20.772447 0-37.611374 16.8389278-37.611374 37.6113744v28.5118485c0 20.772447-16.838928 37.611374-37.6113747 37.611374h117.6872037c20.772447 0 37.611374-16.838927 37.611374-37.611374zm-147.533649 2.5478673v40.1592422h12.132702v-40.1592422zm-1.21327-12.6786729c0 3.9869755 3.231994 7.2189573 7.218957 7.2189573 3.986964 0 7.218958-3.2319818 7.218958-7.2189573 0-3.9869756-3.231994-7.2189574-7.218958-7.2189574-3.986963 0-7.218957 3.2319818-7.218957 7.2189574zm-80.9251184-5.7630332 15.6511848 58.6009483h10.0701422l11.7687204-40.5232232 11.7687203 40.5232232h10.4341233l15.4085308-58.6009483h-11.7687204l-8.9781991 38.5819903-11.1620853-38.5819903h-10.7981042l-11.1620853 37.6113743-8.492891-37.6113743zm131.2758294 0v58.6009483h12.860663v-22.930806h29.118484v-11.8900475h-29.118484v-11.8900474h31.059716v-11.8900474zm52.655924 18.4417061v40.1592422h12.132702v-40.1592422zm-1.091943-12.8c0 3.9869756 3.231994 7.2189574 7.218957 7.2189574 3.986964 0 7.218958-3.2319818 7.218958-7.2189574 0-3.9869755-3.231994-7.2189573-7.218958-7.2189573-3.986963 0-7.218957 3.2319818-7.218957 7.2189573z" fill-rule="evenodd"/></svg>

<?xml version="1.0" encoding="UTF-8" standalone="no"?>
<svg width="256px" height="192px" viewBox="0 0 256 192" version="1.1" xmlns="http://www.w3.org/2000/svg" xmlns:xlink="http://www.w3.org/1999/xlink" preserveAspectRatio="xMidYMid">
    <g fill-rule="evenodd">
        <path d="M198.751242,31.3023697 C181.263093,12.0719287 156.041439,0 128,0 C99.9585608,0 74.7369069,12.0719287 57.2487583,31.3023697 L198.751242,31.3023697 L198.751242,31.3023697 Z M57.2487583,159.909005 C74.7369069,179.139458 99.9585608,191.211374 128,191.211374 C156.041439,191.211374 181.263093,179.139458 198.751242,159.909005 L57.2487583,159.909005 Z M42.464455,39.4312796 C19.0117247,39.4312796 0,58.4429558 0,81.8957346 L0,109.31564 C0,132.768419 19.0117247,151.780095 42.464455,151.780095 L213.535545,151.780095 C236.988275,151.780095 256,132.768419 256,109.31564 L256,81.8957346 C256,58.4429558 236.988275,39.4312796 213.535545,39.4312796 L42.464455,39.4312796 Z M251.632227,81.4104265 C251.632227,60.6379799 234.7933,43.7990521 214.020853,43.7990521 L171.556398,43.7990521 C150.783951,43.7990521 133.945024,60.6379799 133.945024,81.4104265 L133.945024,109.922275 C133.945024,130.694722 117.106096,147.533649 96.3336493,147.533649 L214.020853,147.533649 C234.7933,147.533649 251.632227,130.694722 251.632227,109.922275 L251.632227,81.4104265 Z M104.098578,83.9582938 L104.098578,124.117536 L116.23128,124.117536 L116.23128,83.9582938 L104.098578,83.9582938 Z M102.885308,71.2796209 C102.885308,75.2665964 106.117302,78.4985782 110.104265,78.4985782 C114.091229,78.4985782 117.323223,75.2665964 117.323223,71.2796209 C117.323223,67.2926453 114.091229,64.0606635 110.104265,64.0606635 C106.117302,64.0606635 102.885308,67.2926453 102.885308,71.2796209 L102.885308,71.2796209 Z M21.9601896,65.5165877 L37.6113744,124.117536 L47.6815166,124.117536 L59.450237,83.5943128 L71.2189573,124.117536 L81.6530806,124.117536 L97.0616114,65.5165877 L85.292891,65.5165877 L76.3146919,104.098578 L65.1526066,65.5165877 L54.3545024,65.5165877 L43.1924171,103.127962 L34.6995261,65.5165877 L21.9601896,65.5165877 Z M153.236019,65.5165877 L153.236019,124.117536 L166.096682,124.117536 L166.096682,101.18673 L195.215166,101.18673 L195.215166,89.2966825 L166.096682,89.2966825 L166.096682,77.4066351 L197.156398,77.4066351 L197.156398,65.5165877 L153.236019,65.5165877 Z M205.891943,83.9582938 L205.891943,124.117536 L218.024645,124.117536 L218.024645,83.9582938 L205.891943,83.9582938 L205.891943,83.9582938 Z M204.8,71.1582938 C204.8,75.1452694 208.031994,78.3772512 212.018957,78.3772512 C216.005921,78.3772512 219.237915,75.1452694 219.237915,71.1582938 C219.237915,67.1713183 216.005921,63.9393365 212.018957,63.9393365 C208.031994,63.9393365 204.8,67.1713183 204.8,71.1582938 L204.8,71.1582938 Z" fill="#000000"></path>
    </g>
</svg>
